src/images/facebook-icon.svg

<?xml version="1.0" encoding="utf-8"?>
<!-- Generator: Adobe Illustrator 16.2.1, SVG Export Plug-In . SVG Version: 6.00 Build 0)  -->
<!DOCTYPE svg PUBLIC "-//W3C//DTD SVG 1.1//EN" "http://www.w3.org/Graphics/SVG/1.1/DTD/svg11.dtd">
<svg version="1.1" id="Layer_1" xmlns="http://www.w3.org/2000/svg" xmlns:xlink="http://www.w3.org/1999/xlink" x="0px" y="0px"
	 width="17px" height="17px" viewBox="0 0 17 17" enable-background="new 0 0 17 17" xml:space="preserve">
<path fill="#FFFFFF" d="M14.875,0H2.125C0.956,0,0,0.957,0,2.125v12.75C0,16.045,0.956,17,2.125,17h6.449v-6.096H6.537V8.249h2.037
	v-1.33c0-2.051,1.513-3.657,3.446-3.657h1.877V6.26h-1.679c-0.439,0-0.569,0.252-0.569,0.601v1.388h2.248v2.655h-2.248V17h3.226
	C16.045,17,17,16.045,17,14.875V2.125C17,0.957,16.045,0,14.875,0z"/>
</svg>

<svg xmlns="http://www.w3.org/2000/svg" width="17" height="17" viewBox="0 0 17 17">
  <path id="dark-facebook-icon" d="M14.875,0H2.125A2.132,2.132,0,0,0,0,2.125v12.75A2.13,2.13,0,0,0,2.125,17H8.574V10.9H6.537V8.249H8.574V6.919A3.518,3.518,0,0,1,12.02,3.262H13.9v3H12.218c-.439,0-.569.252-.569.6V8.249H13.9V10.9H11.649V17h3.226A2.13,2.13,0,0,0,17,14.875V2.125A2.131,2.131,0,0,0,14.875,0Z" fill="#5e5f61"/>
</svg>
